build/svg/sd/res/fade_effect_indicator.svg

<?xml version="1.0" encoding="UTF-8" standalone="no"?>
<svg
   xmlns:dc="http://purl.org/dc/elements/1.1/"
   xmlns:cc="http://creativecommons.org/ns#"
   xmlns:rdf="http://www.w3.org/1999/02/22-rdf-syntax-ns#"
   xmlns:svg="http://www.w3.org/2000/svg"
   xmlns="http://www.w3.org/2000/svg"
   xmlns:sodipodi="http://sodipodi.sourceforge.net/DTD/sodipodi-0.dtd"
   xmlns:inkscape="http://www.inkscape.org/namespaces/inkscape"
   viewBox="0 0 16 16"
   version="1.1"
   id="svg4"
   sodipodi:docname="fade_effect_indicator.svg"
   inkscape:export-filename="/home/jupiter007/Libreoffice yaru theme fullcolor/build/sd/res/fade_effect_indicator.png"
   inkscape:export-xdpi="95"
   inkscape:export-ydpi="95"
   inkscape:version="0.92.5 (2060ec1f9f, 2020-04-08)">
  <metadata
     id="metadata10">
    <rdf:RDF>
      <cc:Work
         rdf:about="">
        <dc:format>image/svg+xml</dc:format>
        <dc:type
           rdf:resource="http://purl.org/dc/dcmitype/StillImage" />
      </cc:Work>
    </rdf:RDF>
  </metadata>
  <defs
     id="defs8" />
  <sodipodi:namedview
     pagecolor="#ffffff"
     bordercolor="#666666"
     borderopacity="1"
     objecttolerance="10"
     gridtolerance="10"
     guidetolerance="10"
     inkscape:pageopacity="0"
     inkscape:pageshadow="2"
     inkscape:window-width="1920"
     inkscape:window-height="1011"
     id="namedview6"
     showgrid="false"
     inkscape:zoom="14.75"
     inkscape:cx="0.44067797"
     inkscape:cy="8"
     inkscape:window-x="1920"
     inkscape:window-y="32"
     inkscape:window-maximized="1"
     inkscape:current-layer="svg4" />
  <path
     d="M 0,2.0000003 V 3.0000002 H 6.0000002 V 2.0000003 Z"
     id="path827"
     inkscape:connector-curvature="0"
     style="fill:#6d6d6d;fill-opacity:1"
     sodipodi:nodetypes="ccccc" />
  <path
     d="m 0,4.0000002 v 1 h 4 v -1 z"
     id="path823"
     inkscape:connector-curvature="0"
     style="fill:#6d6d6d;fill-opacity:1"
     sodipodi:nodetypes="ccccc" />
  <path
     d="M 0,9.0000002 V 10 H 2 V 9.0000002 Z"
     id="path821"
     inkscape:connector-curvature="0"
     style="fill:#6d6d6d;fill-opacity:1"
     sodipodi:nodetypes="ccccc" />
  <path
     d="M 0,10.999999 V 12 h 3 v -1.000001 z"
     id="path819"
     inkscape:connector-curvature="0"
     style="fill:#6d6d6d;fill-opacity:1"
     sodipodi:nodetypes="ccccc" />
  <path
     d="m 0,13 v 1 h 2 v -1 z"
     id="path2"
     inkscape:connector-curvature="0"
     style="fill:#6d6d6d;fill-opacity:1"
     sodipodi:nodetypes="ccccc" />
  <path
     inkscape:connector-curvature="0"
     id="path837"
     d="M 8.0000002,1.999982 10.000001,5.9999819 14,6.9999819 11.000001,9.9999811 12,13.999981 l -3.9999998,-2 L 4,13.999981 5.0000002,9.9999811 2,6.9999819 c 0,0 4.0000002,-1 4.0000002,-1 z"
     style="opacity:0.6;fill:#000000;fill-opacity:1;stroke:#000000;stroke-width:2;stroke-linecap:butt;stroke-linejoin:round;stroke-miterlimit:4;stroke-dasharray:none;stroke-opacity:1" />
  <path
     style="fill:#fee581;fill-opacity:1;stroke:none;stroke-width:1px;stroke-linecap:butt;stroke-linejoin:miter;stroke-opacity:1"
     d="M 8.0000002,1.999982 10.000001,5.9999819 14,6.9999819 11.000001,9.9999811 12,13.999981 l -3.9999998,-2 L 4,13.999981 5.0000002,9.9999811 2,6.9999819 c 0,0 4.0000002,-1 4.0000002,-1 z"
     id="path835"
     inkscape:connector-curvature="0" />
</svg>

<svg xmlns="http://www.w3.org/2000/svg" viewBox="0 0 16 16"><path d="M0 2v1h6V2zM0 4v1h4V4zM0 9v1h2V9zM0 11v1h3v-1zM0 13v1h2v-1z" fill="#6d6d6d"/><path d="M8 2l2 4 4 1-3 3 1 4-4-2-4 2 1-4-3-3 4-1z" opacity=".6" stroke="#000" stroke-width="2" stroke-linejoin="round"/><path d="M8 2l2 4 4 1-3 3 1 4-4-2-4 2 1-4-3-3 4-1z" fill="#fee581"/></svg>
